X: 31770
T: Patrick O'Connor's
R: polka
M: 2/4
K: Gmajor
|:A2 eA|eA e/f/g/e/|dB gB|dB g2|
A2 eA|eA e/f/g/e/|dB gB|BA A2:|
|:a2 ef/g/|ag e/f/g/e/|dB gB|dB g2|
a2 ef/g/|ag e/f/g/e/|dB gB|BA A2:|

